components/ui-node-icon/src/extract/extract.large.svg

<svg width="32" height="32" viewBox="0 0 32 32" fill="none" xmlns="http://www.w3.org/2000/svg">
  <path d="M17 3C18.6569 3 20 4.34315 20 6L20 26C20 27.6569 18.6569 29 17 29H11C9.34315 29 8 27.6569 8 26L8 6C8 4.34315 9.34315 3 11 3L17 3Z" fill="var(--tbl--colors--icons--clean--secondary)"/>
  <path fill-rule="evenodd" clip-rule="evenodd" d="M21.7929 9.79289C21.4024 10.1834 21.4024 10.8166 21.7929 11.2071L24.0858 13.5H18.5C16.2909 13.5 14.5 15.2909 14.5 17.5V18.5C14.5 19.0523 14.9477 19.5 15.5 19.5C16.0523 19.5 16.5 19.0523 16.5 18.5V17.5C16.5 16.3954 17.3954 15.5 18.5 15.5H24.0858L21.7929 17.7929C21.4024 18.1834 21.4024 18.8166 21.793 19.2071C22.1835 19.5976 22.8167 19.5976 23.2072 19.2071L27.2071 15.2071C27.5976 14.8166 27.5976 14.1834 27.2071 13.7929L23.2071 9.79289C22.8166 9.40237 22.1834 9.40237 21.7929 9.79289Z" fill="var(--tbl--colors--icons--clean--primary)"/>
</svg>

<svg xmlns="http://www.w3.org/2000/svg" width="32" height="32" fill="none" viewBox="0 0 32 32">
  <path fill="var(--tbl--colors--icons--clean--secondary)" d="M17 3a3 3 0 0 1 3 3v20a3 3 0 0 1-3 3h-6a3 3 0 0 1-3-3V6a3 3 0 0 1 3-3h6Z"/>
  <path fill="var(--tbl--colors--icons--clean--primary)" fill-rule="evenodd" d="M21.793 9.793a1 1 0 0 0 0 1.414l2.293 2.293H18.5a4 4 0 0 0-4 4v1a1 1 0 1 0 2 0v-1a2 2 0 0 1 2-2h5.586l-2.293 2.293a1 1 0 1 0 1.414 1.414l4-4a1 1 0 0 0 0-1.414l-4-4a1 1 0 0 0-1.414 0Z" clip-rule="evenodd"/>
</svg>
